icons/1_Primary/Proton.svg

<svg width="1024" height="1024" viewBox="0 0 1024 1024" fill="none" xmlns="http://www.w3.org/2000/svg">
<g clip-path="url(#clip0_2_3219)">
<path d="M512 1024C794.77 1024 1024 794.77 1024 512C1024 229.23 794.77 0 512 0C229.23 0 0 229.23 0 512C0 794.77 229.23 1024 512 1024Z" fill="#ABABFF"/>
<path d="M353.63 634.51V767.87H447.15V640.33C447.168 627.914 452.112 616.013 460.895 607.237C469.678 598.461 481.584 593.528 494 593.52H589.8C634.576 593.52 677.519 575.733 709.181 544.071C740.842 512.409 758.63 469.467 758.63 424.69C758.63 379.914 740.842 336.971 709.181 305.309C677.519 273.648 634.576 255.86 589.8 255.86H353.64V422.51H447.16V344H583.42C604.608 344 624.928 352.417 639.911 367.399C654.893 382.382 663.31 402.702 663.31 423.89C663.31 445.078 654.893 465.399 639.911 480.381C624.928 495.363 604.608 503.78 583.42 503.78H484.42C449.747 503.806 416.491 517.546 391.91 542C367.441 566.564 353.68 599.809 353.63 634.48V634.51Z" fill="white"/>
</g>
<defs>
<clipPath id="clip0_2_3219">
<rect width="1024" height="1024" fill="white"/>
</clipPath>
</defs>
</svg>

<svg xmlns="http://www.w3.org/2000/svg" width="1024" height="1024" fill="none">
   <g clip-path="url(#a)">
      <path fill="#ABABFF" d="M512 1024c282.77 0 512-229.23 512-512S794.77 0 512 0 0 229.23 0 512s229.23 512 512 512Z"/>
      <path fill="#fff" d="M353.63 634.51v133.36h93.52V640.33A46.878 46.878 0 0 1 494 593.52h95.8a168.83 168.83 0 1 0 0-337.66H353.64v166.65h93.52V344h136.26a79.893 79.893 0 0 1 79.89 79.89 79.891 79.891 0 0 1-79.89 79.89h-99A131.31 131.31 0 0 0 391.91 542a131.31 131.31 0 0 0-38.28 92.48v.03Z"/>
   </g>
   <defs>
      <clipPath id="a">
         <path fill="#fff" d="M0 0h1024v1024H0z"/>
      </clipPath>
   </defs>
</svg>
